X:1
T:Toss the Feathers
C:Trad.
R:Reel
M:C|
K:Dmix
|: D2F/E/D ADF/E/D | ABcA GEcE | D2F/E/D ADF/E/D | d2ed cAGE |
   D2F/E/D ADF/E/D | ABcA GEE/E/E | cABG ABcA |1 d2ed cAGE :|2 d2ed cAGB |
|: Add/d/d Add^c | Add/d/d ed^cd | eaag a2ag | eaag ed^cd |
    efg/f/e afge | dfed cAA/A/B | cABG ABcA |1 d2ed cAGB :|2 d2ed cAGE |

